X:1
T:Lágrima
T:Prelude / Prélude TI i-17
T:Francisco Tárrega (1852-1909)
%%score ( 1 2 3 )
L:1/8
Q:1/4=56
M:3/4
K:E
V:1 treble-8 nm="Guitar" snm="Guit."
V:2 treble-8 
V:3 treble-8 
V:1
"^Andante espressivo-63"!mp!!<(! !4!g2 !4!a2 !4!b2!<)! | !4!f6 |!<(! g2 a2 b2!<)! | f6 | %4
 !4!e'2 !4!d'2 !4!c'2 | !1!b2 !3!c!0!e !4!f!2!a | !2!g2 cf!>(! B,!mp!!1!!2!!4![=Ad]!>)! | %7
 !1!!0![Ge]4 z2 ::[K:G]!f! !0!!2![Bg](c' !1!b)!0!e !1!!4![A^df]!2!g | !0!e4 [EG][FA] | %10
!f! !0![GB]!4!e' !1!A!2!c' !3!F!4!a | !2!!1![df]4 !0!B!p!!2!f |!<(! !3!g2 !3!a2 !4!b2!<)! | %13
!f!!>(! (!4!d'!2!c') !1!b!4!a !2!g!1!f!>)! | !0!e2 !4!f2 B2 | [Ge]4 z2!D.C.! :| %16
V:2
 !1!E!0!B !2!FB !2!GB | !1!D4 !2!B,2 | EB FB GB | D4 B,2 | !3!c!1!e !1!B!1!e !1!Af | !3!B!4!g c4 | %6
 !1!B!0!e ^A2 B,2 | !2!E2 E,2 z2 ::[K:G] E,4 !1!B,2 | E,4 x2 | E,2 A2 F2 | !1!B,4 z2 | %12
 !1!E!0!B !1!FB !1!GB | A,6 | e[GB] f!3!!1![Ac] !2!B,!1![^DA] | !1!E2 E,2 z2 :| %16
V:3
 x6 | z !0!B !3!AB B,!>(!B!>)! | x6 | z B AB B,!>(!B!>)! | x6 | x6 | x6 | x6 ::[K:G] x6 | %9
 e!p!!2!!1![Ac] !0![GB]!4!!1![FA] x2 | x6 | ^d(!3!B !4!c)!3!B x2 | x6 | x6 | x6 | x6 :| %16

